images/math.svg

<svg width="2644" height="1488" xmlns="http://www.w3.org/2000/svg" xml:space="preserve" overflow="hidden"><defs><clipPath id="a"><path d="M308 335h2644v1488H308z"/></clipPath></defs><g clip-path="url(#a)" transform="translate(-308 -335)"><path fill="#FFF" d="M309 336h2641v1485H309z"/><path d="M440.5 1573.55h2459m-2459-81h2459m-2459-82h2459m-2459-81.01h2459m-2459-82h2459m-2459-81h2459m-2459-82h2459m-2459-82.01h2459m-2459-81h2459m-2459-82.002h2459m-2459-81.003h2459m-2459-82.003h2459m-2459-81.002h2459m-2459-82.003h2459M440.5 431.5h2459M440.5 1655.5h2459" stroke="#D9D9D9" stroke-width="3.438" stroke-linejoin="round" stroke-miterlimit="10" fill="none"/><path d="m616 881 351.032-269.98 351.008-44.001L1670.05 505l351.02 37.018 351.01 122.004L2724 636.021" stroke="#5B9BD5" stroke-width="10.313" stroke-linecap="round" stroke-linejoin="round" stroke-miterlimit="10" fill="none"/><g stroke="#5B9BD5" stroke-width="3.438" stroke-linejoin="round" stroke-miterlimit="10" fill="#5B9BD5"><path d="M626.874 880.393c0 6.075-4.924 11-10.999 11s-11-4.925-11-11 4.925-11 11-11 10.999 4.925 10.999 11ZM978.874 611.393c0 6.075-4.924 10.999-10.999 10.999s-11-4.924-11-10.999 4.925-11 11-11 10.999 4.925 10.999 11ZM1329.87 566.393c0 6.075-4.92 10.999-11 10.999-6.07 0-10.99-4.924-10.99-10.999s4.92-11 10.99-11c6.08 0 11 4.925 11 11ZM1680.87 505.393c0 6.075-4.92 11-11 11-6.07 0-10.99-4.925-10.99-11s4.92-11 10.99-11c6.08 0 11 4.925 11 11ZM2032.87 542.393c0 6.075-4.92 10.999-11 10.999-6.07 0-10.99-4.924-10.99-10.999s4.92-11 10.99-11c6.08 0 11 4.925 11 11ZM2383.87 664.393c0 6.075-4.92 10.999-11 10.999-6.07 0-10.99-4.924-10.99-10.999s4.92-11 10.99-11c6.08 0 11 4.925 11 11ZM2734.87 635.393c0 6.075-4.92 11-11 11-6.07 0-10.99-4.925-10.99-11s4.92-11 10.99-11c6.08 0 11 4.925 11 11Z"/></g><path d="m616 1656 351.032-179.95 351.008 82 352.01 57 351.02-33L2372.08 1423 2724 1549.05" stroke="#ED7D31" stroke-width="10.313" stroke-linecap="round" stroke-linejoin="round" stroke-miterlimit="10" fill="none"/><g stroke="#ED7D31" stroke-width="3.438" stroke-linejoin="round" stroke-miterlimit="10" fill="#ED7D31"><path d="M626.874 1655.39c0 6.08-4.924 11-10.999 11s-11-4.92-11-11c0-6.07 4.925-11 11-11s10.999 4.93 10.999 11ZM978.874 1476.39c0 6.08-4.924 11-10.999 11s-11-4.92-11-11c0-6.07 4.925-11 11-11s10.999 4.93 10.999 11ZM1329.87 1557.39c0 6.08-4.92 11-11 11-6.07 0-10.99-4.92-10.99-11 0-6.07 4.92-11 10.99-11 6.08 0 11 4.93 11 11ZM1680.87 1614.39c0 6.08-4.92 11-11 11-6.07 0-10.99-4.92-10.99-11 0-6.07 4.92-11 10.99-11 6.08 0 11 4.93 11 11ZM2032.87 1582.39c0 6.08-4.92 11-11 11-6.07 0-10.99-4.92-10.99-11 0-6.07 4.92-11 10.99-11 6.08 0 11 4.93 11 11ZM2383.87 1423.39c0 6.08-4.92 11-11 11-6.07 0-10.99-4.92-10.99-11 0-6.07 4.92-11 10.99-11 6.08 0 11 4.93 11 11ZM2734.87 1549.39c0 6.08-4.92 11-11 11-6.07 0-10.99-4.92-10.99-11 0-6.07 4.92-11 10.99-11 6.08 0 11 4.93 11 11Z"/></g><path d="M616 1656h351.032l351.008-36.95 352.01 4 351.02-4 351.01 36.95 351.92-98" stroke="#A5A5A5" stroke-width="10.313" stroke-linecap="round" stroke-linejoin="round" stroke-miterlimit="10" fill="none"/><g stroke="#A5A5A5" stroke-width="3.438" stroke-linejoin="round" stroke-miterlimit="10" fill="#A5A5A5"><path d="M626.874 1655.39c0 6.08-4.924 11-10.999 11s-11-4.92-11-11c0-6.07 4.925-11 11-11s10.999 4.93 10.999 11ZM978.874 1655.39c0 6.08-4.924 11-10.999 11s-11-4.92-11-11c0-6.07 4.925-11 11-11s10.999 4.93 10.999 11ZM1329.87 1618.39c0 6.08-4.92 11-11 11-6.07 0-10.99-4.92-10.99-11 0-6.07 4.92-11 10.99-11 6.08 0 11 4.93 11 11ZM1680.87 1622.39c0 6.08-4.92 11-11 11-6.07 0-10.99-4.92-10.99-11 0-6.07 4.92-11 10.99-11 6.08 0 11 4.93 11 11ZM2032.87 1618.39c0 6.08-4.92 11-11 11-6.07 0-10.99-4.92-10.99-11 0-6.07 4.92-11 10.99-11 6.08 0 11 4.93 11 11ZM2383.87 1655.39c0 6.08-4.92 11-11 11-6.07 0-10.99-4.92-10.99-11 0-6.07 4.92-11 10.99-11 6.08 0 11 4.93 11 11ZM2734.87 1557.39c0 6.08-4.92 11-11 11-6.07 0-10.99-4.92-10.99-11 0-6.07 4.92-11 10.99-11 6.08 0 11 4.93 11 11Z"/></g><text fill="#595959" font-family="Calibri,Calibri_MSFontService,sans-serif" font-weight="400" font-size="41" transform="translate(380.967 1667)">0</text><text fill="#595959" font-family="Calibri,Calibri_MSFontService,sans-serif" font-weight="400" font-size="41" transform="translate(360.067 1586)">10</text><text fill="#595959" font-family="Calibri,Calibri_MSFontService,sans-serif" font-weight="400" font-size="41" transform="translate(360.067 1504)">20</text><text fill="#595959" font-family="Calibri,Calibri_MSFontService,sans-serif" font-weight="400" font-size="41" transform="translate(360.067 1422)">30</text><text fill="#595959" font-family="Calibri,Calibri_MSFontService,sans-serif" font-weight="400" font-size="41" transform="translate(360.067 1341)">40</text><text fill="#595959" font-family="Calibri,Calibri_MSFontService,sans-serif" font-weight="400" font-size="41" transform="translate(360.067 1259)">50</text><text fill="#595959" font-family="Calibri,Calibri_MSFontService,sans-serif" font-weight="400" font-size="41" transform="translate(360.067 1178)">60</text><text fill="#595959" font-family="Calibri,Calibri_MSFontService,sans-serif" font-weight="400" font-size="41" transform="translate(360.067 1096)">70</text><text fill="#595959" font-family="Calibri,Calibri_MSFontService,sans-serif" font-weight="400" font-size="41" transform="translate(360.067 1015)">80</text><text fill="#595959" font-family="Calibri,Calibri_MSFontService,sans-serif" font-weight="400" font-size="41" transform="translate(360.067 933)">90</text><text fill="#595959" font-family="Calibri,Calibri_MSFontService,sans-serif" font-weight="400" font-size="41" transform="translate(339.167 851)">100</text><text fill="#595959" font-family="Calibri,Calibri_MSFontService,sans-serif" font-weight="400" font-size="41" transform="translate(339.167 770)">110</text><text fill="#595959" font-family="Calibri,Calibri_MSFontService,sans-serif" font-weight="400" font-size="41" transform="translate(339.167 688)">120</text><text fill="#595959" font-family="Calibri,Calibri_MSFontService,sans-serif" font-weight="400" font-size="41" transform="translate(339.167 607)">130</text><text fill="#595959" font-family="Calibri,Calibri_MSFontService,sans-serif" font-weight="400" font-size="41" transform="translate(339.167 525)">140</text><text fill="#595959" font-family="Calibri,Calibri_MSFontService,sans-serif" font-weight="400" font-size="41" transform="translate(339.167 444)">150</text><text fill="#595959" font-family="Calibri,Calibri_MSFontService,sans-serif" font-weight="400" font-size="41" transform="translate(574.572 1721)">312a</text><text fill="#595959" font-family="Calibri,Calibri_MSFontService,sans-serif" font-weight="400" font-size="41" transform="translate(914.49 1721)">403b1</text><text fill="#595959" font-family="Calibri,Calibri_MSFontService,sans-serif" font-weight="400" font-size="41" transform="translate(1265.82 1721)">403b2</text><text fill="#595959" font-family="Calibri,Calibri_MSFontService,sans-serif" font-weight="400" font-size="41" transform="translate(1628.56 1721)">403a</text><text fill="#595959" font-family="Calibri,Calibri_MSFontService,sans-serif" font-weight="400" font-size="41" transform="translate(1968.48 1721)">404b1</text><text fill="#595959" font-family="Calibri,Calibri_MSFontService,sans-serif" font-weight="400" font-size="41" transform="translate(2319.81 1721)">404b2</text><text fill="#595959" font-family="Calibri,Calibri_MSFontService,sans-serif" font-weight="400" font-size="41" transform="translate(2682.56 1721)">404a</text><text fill="#595959" font-family="DengXian,DengXian_MSFontService,sans-serif" font-weight="400" font-size="64" transform="translate(1565.45 409)">数学</text><path d="M1126 1778h88" stroke="#5B9BD5" stroke-width="10.313" stroke-linecap="round" stroke-linejoin="round" stroke-miterlimit="10" fill="none"/><path d="M1180 1777c0 6.07-4.93 11-11 11-6.08 0-11-4.93-11-11 0-6.08 4.92-11 11-11 6.07 0 11 4.92 11 11Z" stroke="#5B9BD5" stroke-width="3.438" stroke-linejoin="round" stroke-miterlimit="10" fill="#5B9BD5"/><text fill="#595959" font-family="DengXian,DengXian_MSFontService,sans-serif" font-weight="400" font-size="41" transform="translate(1222.96 1787)">分数</text><path d="M1366 1778h88" stroke="#ED7D31" stroke-width="10.313" stroke-linecap="round" stroke-linejoin="round" stroke-miterlimit="10" fill="none"/><path d="M1420 1777c0 6.07-4.93 11-11 11-6.08 0-11-4.93-11-11 0-6.08 4.92-11 11-11 6.07 0 11 4.92 11 11Z" stroke="#ED7D31" stroke-width="3.438" stroke-linejoin="round" stroke-miterlimit="10" fill="#ED7D31"/><text fill="#595959" font-family="DengXian,DengXian_MSFontService,sans-serif" font-weight="400" font-size="41" transform="translate(1462.9 1787)">非能力因素失分</text><path d="M1812 1778h88" stroke="#A5A5A5" stroke-width="10.313" stroke-linecap="round" stroke-linejoin="round" stroke-miterlimit="10" fill="none"/><path d="M1866 1777c0 6.07-4.92 11-11 11-6.07 0-11-4.93-11-11 0-6.08 4.93-11 11-11 6.08 0 11 4.92 11 11Z" stroke="#A5A5A5" stroke-width="3.438" stroke-linejoin="round" stroke-miterlimit="10" fill="#A5A5A5"/><text fill="#595959" font-family="DengXian,DengXian_MSFontService,sans-serif" font-weight="400" font-size="41" transform="translate(1909.09 1787)">能力因素失分</text><path stroke="#D9D9D9" stroke-width="3.438" stroke-linejoin="round" stroke-miterlimit="10" fill="none" d="M309.5 336.5h2641v1485h-2641z"/></g></svg>

<svg width="2644" height="1488" xmlns="http://www.w3.org/2000/svg" xmlns:xlink="http://www.w3.org/1999/xlink" xml:space="preserve" overflow="hidden"><defs><clipPath id="clip0"><rect x="308" y="335" width="2644" height="1488"/></clipPath></defs><g clip-path="url(#clip0)" transform="translate(-308 -335)"><rect x="309" y="336" width="2641" height="1485" fill="#FFFFFF"/><g><path d="M440.5 1573.55 2899.5 1573.55M440.5 1492.55 2899.5 1492.55M440.5 1410.55 2899.5 1410.55M440.5 1329.54 2899.5 1329.54M440.5 1247.54 2899.5 1247.54M440.5 1166.54 2899.5 1166.54M440.5 1084.54 2899.5 1084.54M440.5 1002.53 2899.5 1002.53M440.5 921.53 2899.5 921.53M440.5 839.528 2899.5 839.528M440.5 758.525 2899.5 758.525M440.5 676.522 2899.5 676.522M440.5 595.52 2899.5 595.52M440.5 513.517 2899.5 513.517M440.5 431.5 2899.5 431.5" stroke="#D9D9D9" stroke-width="3.4375" stroke-linejoin="round" stroke-miterlimit="10" fill="none"/></g><g><path d="M440.5 1655.5 2899.5 1655.5" stroke="#D9D9D9" stroke-width="3.4375" stroke-linejoin="round" stroke-miterlimit="10" fill="none" fill-rule="evenodd"/></g><g><path d="M616 881 967.032 611.02 1318.04 567.019 1670.05 505 2021.07 542.018 2372.08 664.022 2724 636.021" stroke="#5B9BD5" stroke-width="10.3125" stroke-linecap="round" stroke-linejoin="round" stroke-miterlimit="10" fill="none"/></g><g><path d="M626.874 880.393C626.874 886.468 621.95 891.393 615.875 891.393 609.8 891.393 604.875 886.468 604.875 880.393 604.875 874.318 609.8 869.393 615.875 869.393 621.95 869.393 626.874 874.318 626.874 880.393Z" stroke="#5B9BD5" stroke-width="3.4375" stroke-linejoin="round" stroke-miterlimit="10" fill="#5B9BD5"/><path d="M978.874 611.393C978.874 617.468 973.95 622.392 967.875 622.392 961.8 622.392 956.875 617.468 956.875 611.393 956.875 605.318 961.8 600.393 967.875 600.393 973.95 600.393 978.874 605.318 978.874 611.393Z" stroke="#5B9BD5" stroke-width="3.4375" stroke-linejoin="round" stroke-miterlimit="10" fill="#5B9BD5"/><path d="M1329.87 566.393C1329.87 572.468 1324.95 577.392 1318.87 577.392 1312.8 577.392 1307.88 572.468 1307.88 566.393 1307.88 560.318 1312.8 555.393 1318.87 555.393 1324.95 555.393 1329.87 560.318 1329.87 566.393Z" stroke="#5B9BD5" stroke-width="3.4375" stroke-linejoin="round" stroke-miterlimit="10" fill="#5B9BD5"/><path d="M1680.87 505.393C1680.87 511.468 1675.95 516.393 1669.87 516.393 1663.8 516.393 1658.88 511.468 1658.88 505.393 1658.88 499.318 1663.8 494.393 1669.87 494.393 1675.95 494.393 1680.87 499.318 1680.87 505.393Z" stroke="#5B9BD5" stroke-width="3.4375" stroke-linejoin="round" stroke-miterlimit="10" fill="#5B9BD5"/><path d="M2032.87 542.393C2032.87 548.468 2027.95 553.392 2021.87 553.392 2015.8 553.392 2010.88 548.468 2010.88 542.393 2010.88 536.318 2015.8 531.393 2021.87 531.393 2027.95 531.393 2032.87 536.318 2032.87 542.393Z" stroke="#5B9BD5" stroke-width="3.4375" stroke-linejoin="round" stroke-miterlimit="10" fill="#5B9BD5"/><path d="M2383.87 664.393C2383.87 670.468 2378.95 675.392 2372.87 675.392 2366.8 675.392 2361.88 670.468 2361.88 664.393 2361.88 658.318 2366.8 653.393 2372.87 653.393 2378.95 653.393 2383.87 658.318 2383.87 664.393Z" stroke="#5B9BD5" stroke-width="3.4375" stroke-linejoin="round" stroke-miterlimit="10" fill="#5B9BD5"/><path d="M2734.87 635.393C2734.87 641.468 2729.95 646.393 2723.87 646.393 2717.8 646.393 2712.88 641.468 2712.88 635.393 2712.88 629.318 2717.8 624.393 2723.87 624.393 2729.95 624.393 2734.87 629.318 2734.87 635.393Z" stroke="#5B9BD5" stroke-width="3.4375" stroke-linejoin="round" stroke-miterlimit="10" fill="#5B9BD5"/></g><g><path d="M616 1656 967.032 1476.05 1318.04 1558.05 1670.05 1615.05 2021.07 1582.05 2372.08 1423 2724 1549.05" stroke="#ED7D31" stroke-width="10.3125" stroke-linecap="round" stroke-linejoin="round" stroke-miterlimit="10" fill="none"/></g><g><path d="M626.874 1655.39C626.874 1661.47 621.95 1666.39 615.875 1666.39 609.8 1666.39 604.875 1661.47 604.875 1655.39 604.875 1649.32 609.8 1644.39 615.875 1644.39 621.95 1644.39 626.874 1649.32 626.874 1655.39Z" stroke="#ED7D31" stroke-width="3.4375" stroke-linejoin="round" stroke-miterlimit="10" fill="#ED7D31"/><path d="M978.874 1476.39C978.874 1482.47 973.95 1487.39 967.875 1487.39 961.8 1487.39 956.875 1482.47 956.875 1476.39 956.875 1470.32 961.8 1465.39 967.875 1465.39 973.95 1465.39 978.874 1470.32 978.874 1476.39Z" stroke="#ED7D31" stroke-width="3.4375" stroke-linejoin="round" stroke-miterlimit="10" fill="#ED7D31"/><path d="M1329.87 1557.39C1329.87 1563.47 1324.95 1568.39 1318.87 1568.39 1312.8 1568.39 1307.88 1563.47 1307.88 1557.39 1307.88 1551.32 1312.8 1546.39 1318.87 1546.39 1324.95 1546.39 1329.87 1551.32 1329.87 1557.39Z" stroke="#ED7D31" stroke-width="3.4375" stroke-linejoin="round" stroke-miterlimit="10" fill="#ED7D31"/><path d="M1680.87 1614.39C1680.87 1620.47 1675.95 1625.39 1669.87 1625.39 1663.8 1625.39 1658.88 1620.47 1658.88 1614.39 1658.88 1608.32 1663.8 1603.39 1669.87 1603.39 1675.95 1603.39 1680.87 1608.32 1680.87 1614.39Z" stroke="#ED7D31" stroke-width="3.4375" stroke-linejoin="round" stroke-miterlimit="10" fill="#ED7D31"/><path d="M2032.87 1582.39C2032.87 1588.47 2027.95 1593.39 2021.87 1593.39 2015.8 1593.39 2010.88 1588.47 2010.88 1582.39 2010.88 1576.32 2015.8 1571.39 2021.87 1571.39 2027.95 1571.39 2032.87 1576.32 2032.87 1582.39Z" stroke="#ED7D31" stroke-width="3.4375" stroke-linejoin="round" stroke-miterlimit="10" fill="#ED7D31"/><path d="M2383.87 1423.39C2383.87 1429.47 2378.95 1434.39 2372.87 1434.39 2366.8 1434.39 2361.88 1429.47 2361.88 1423.39 2361.88 1417.32 2366.8 1412.39 2372.87 1412.39 2378.95 1412.39 2383.87 1417.32 2383.87 1423.39Z" stroke="#ED7D31" stroke-width="3.4375" stroke-linejoin="round" stroke-miterlimit="10" fill="#ED7D31"/><path d="M2734.87 1549.39C2734.87 1555.47 2729.95 1560.39 2723.87 1560.39 2717.8 1560.39 2712.88 1555.47 2712.88 1549.39 2712.88 1543.32 2717.8 1538.39 2723.87 1538.39 2729.95 1538.39 2734.87 1543.32 2734.87 1549.39Z" stroke="#ED7D31" stroke-width="3.4375" stroke-linejoin="round" stroke-miterlimit="10" fill="#ED7D31"/></g><g><path d="M616 1656 967.032 1656 1318.04 1619.05 1670.05 1623.05 2021.07 1619.05 2372.08 1656 2724 1558" stroke="#A5A5A5" stroke-width="10.3125" stroke-linecap="round" stroke-linejoin="round" stroke-miterlimit="10" fill="none"/></g><g><path d="M626.874 1655.39C626.874 1661.47 621.95 1666.39 615.875 1666.39 609.8 1666.39 604.875 1661.47 604.875 1655.39 604.875 1649.32 609.8 1644.39 615.875 1644.39 621.95 1644.39 626.874 1649.32 626.874 1655.39Z" stroke="#A5A5A5" stroke-width="3.4375" stroke-linejoin="round" stroke-miterlimit="10" fill="#A5A5A5"/><path d="M978.874 1655.39C978.874 1661.47 973.95 1666.39 967.875 1666.39 961.8 1666.39 956.875 1661.47 956.875 1655.39 956.875 1649.32 961.8 1644.39 967.875 1644.39 973.95 1644.39 978.874 1649.32 978.874 1655.39Z" stroke="#A5A5A5" stroke-width="3.4375" stroke-linejoin="round" stroke-miterlimit="10" fill="#A5A5A5"/><path d="M1329.87 1618.39C1329.87 1624.47 1324.95 1629.39 1318.87 1629.39 1312.8 1629.39 1307.88 1624.47 1307.88 1618.39 1307.88 1612.32 1312.8 1607.39 1318.87 1607.39 1324.95 1607.39 1329.87 1612.32 1329.87 1618.39Z" stroke="#A5A5A5" stroke-width="3.4375" stroke-linejoin="round" stroke-miterlimit="10" fill="#A5A5A5"/><path d="M1680.87 1622.39C1680.87 1628.47 1675.95 1633.39 1669.87 1633.39 1663.8 1633.39 1658.88 1628.47 1658.88 1622.39 1658.88 1616.32 1663.8 1611.39 1669.87 1611.39 1675.95 1611.39 1680.87 1616.32 1680.87 1622.39Z" stroke="#A5A5A5" stroke-width="3.4375" stroke-linejoin="round" stroke-miterlimit="10" fill="#A5A5A5"/><path d="M2032.87 1618.39C2032.87 1624.47 2027.95 1629.39 2021.87 1629.39 2015.8 1629.39 2010.88 1624.47 2010.88 1618.39 2010.88 1612.32 2015.8 1607.39 2021.87 1607.39 2027.95 1607.39 2032.87 1612.32 2032.87 1618.39Z" stroke="#A5A5A5" stroke-width="3.4375" stroke-linejoin="round" stroke-miterlimit="10" fill="#A5A5A5"/><path d="M2383.87 1655.39C2383.87 1661.47 2378.95 1666.39 2372.87 1666.39 2366.8 1666.39 2361.88 1661.47 2361.88 1655.39 2361.88 1649.32 2366.8 1644.39 2372.87 1644.39 2378.95 1644.39 2383.87 1649.32 2383.87 1655.39Z" stroke="#A5A5A5" stroke-width="3.4375" stroke-linejoin="round" stroke-miterlimit="10" fill="#A5A5A5"/><path d="M2734.87 1557.39C2734.87 1563.47 2729.95 1568.39 2723.87 1568.39 2717.8 1568.39 2712.88 1563.47 2712.88 1557.39 2712.88 1551.32 2717.8 1546.39 2723.87 1546.39 2729.95 1546.39 2734.87 1551.32 2734.87 1557.39Z" stroke="#A5A5A5" stroke-width="3.4375" stroke-linejoin="round" stroke-miterlimit="10" fill="#A5A5A5"/></g><g><text fill="#595959" font-family="Calibri,Calibri_MSFontService,sans-serif" font-weight="400" font-size="41" transform="matrix(1 0 0 1 380.967 1667)">0</text></g><g><text fill="#595959" font-family="Calibri,Calibri_MSFontService,sans-serif" font-weight="400" font-size="41" transform="matrix(1 0 0 1 360.067 1586)">10</text></g><g><text fill="#595959" font-family="Calibri,Calibri_MSFontService,sans-serif" font-weight="400" font-size="41" transform="matrix(1 0 0 1 360.067 1504)">20</text></g><g><text fill="#595959" font-family="Calibri,Calibri_MSFontService,sans-serif" font-weight="400" font-size="41" transform="matrix(1 0 0 1 360.067 1422)">30</text></g><g><text fill="#595959" font-family="Calibri,Calibri_MSFontService,sans-serif" font-weight="400" font-size="41" transform="matrix(1 0 0 1 360.067 1341)">40</text></g><g><text fill="#595959" font-family="Calibri,Calibri_MSFontService,sans-serif" font-weight="400" font-size="41" transform="matrix(1 0 0 1 360.067 1259)">50</text></g><g><text fill="#595959" font-family="Calibri,Calibri_MSFontService,sans-serif" font-weight="400" font-size="41" transform="matrix(1 0 0 1 360.067 1178)">60</text></g><g><text fill="#595959" font-family="Calibri,Calibri_MSFontService,sans-serif" font-weight="400" font-size="41" transform="matrix(1 0 0 1 360.067 1096)">70</text></g><g><text fill="#595959" font-family="Calibri,Calibri_MSFontService,sans-serif" font-weight="400" font-size="41" transform="matrix(1 0 0 1 360.067 1015)">80</text></g><g><text fill="#595959" font-family="Calibri,Calibri_MSFontService,sans-serif" font-weight="400" font-size="41" transform="matrix(1 0 0 1 360.067 933)">90</text></g><g><text fill="#595959" font-family="Calibri,Calibri_MSFontService,sans-serif" font-weight="400" font-size="41" transform="matrix(1 0 0 1 339.167 851)">100</text></g><g><text fill="#595959" font-family="Calibri,Calibri_MSFontService,sans-serif" font-weight="400" font-size="41" transform="matrix(1 0 0 1 339.167 770)">110</text></g><g><text fill="#595959" font-family="Calibri,Calibri_MSFontService,sans-serif" font-weight="400" font-size="41" transform="matrix(1 0 0 1 339.167 688)">120</text></g><g><text fill="#595959" font-family="Calibri,Calibri_MSFontService,sans-serif" font-weight="400" font-size="41" transform="matrix(1 0 0 1 339.167 607)">130</text></g><g><text fill="#595959" font-family="Calibri,Calibri_MSFontService,sans-serif" font-weight="400" font-size="41" transform="matrix(1 0 0 1 339.167 525)">140</text></g><g><text fill="#595959" font-family="Calibri,Calibri_MSFontService,sans-serif" font-weight="400" font-size="41" transform="matrix(1 0 0 1 339.167 444)">150</text></g><g><text fill="#595959" font-family="Calibri,Calibri_MSFontService,sans-serif" font-weight="400" font-size="41" transform="matrix(1 0 0 1 574.572 1721)">312a</text></g><g><text fill="#595959" font-family="Calibri,Calibri_MSFontService,sans-serif" font-weight="400" font-size="41" transform="matrix(1 0 0 1 914.49 1721)">403b1</text></g><g><text fill="#595959" font-family="Calibri,Calibri_MSFontService,sans-serif" font-weight="400" font-size="41" transform="matrix(1 0 0 1 1265.82 1721)">403b2</text></g><g><text fill="#595959" font-family="Calibri,Calibri_MSFontService,sans-serif" font-weight="400" font-size="41" transform="matrix(1 0 0 1 1628.56 1721)">403a</text></g><g><text fill="#595959" font-family="Calibri,Calibri_MSFontService,sans-serif" font-weight="400" font-size="41" transform="matrix(1 0 0 1 1968.48 1721)">404b1</text></g><g><text fill="#595959" font-family="Calibri,Calibri_MSFontService,sans-serif" font-weight="400" font-size="41" transform="matrix(1 0 0 1 2319.81 1721)">404b2</text></g><g><text fill="#595959" font-family="Calibri,Calibri_MSFontService,sans-serif" font-weight="400" font-size="41" transform="matrix(1 0 0 1 2682.56 1721)">404a</text></g><g><text fill="#595959" font-family="DengXian,DengXian_MSFontService,sans-serif" font-weight="400" font-size="64" transform="matrix(1 0 0 1 1565.45 409)">数学</text></g><g><path d="M1126 1778 1214 1778" stroke="#5B9BD5" stroke-width="10.3125" stroke-linecap="round" stroke-linejoin="round" stroke-miterlimit="10" fill="none" fill-rule="evenodd"/></g><g><path d="M1180 1777C1180 1783.07 1175.07 1788 1169 1788 1162.92 1788 1158 1783.07 1158 1777 1158 1770.92 1162.92 1766 1169 1766 1175.07 1766 1180 1770.92 1180 1777Z" stroke="#5B9BD5" stroke-width="3.4375" stroke-linejoin="round" stroke-miterlimit="10" fill="#5B9BD5"/></g><g><g><text fill="#595959" font-family="DengXian,DengXian_MSFontService,sans-serif" font-weight="400" font-size="41" transform="matrix(1 0 0 1 1222.96 1787)">分数</text></g></g><g><path d="M1366 1778 1454 1778" stroke="#ED7D31" stroke-width="10.3125" stroke-linecap="round" stroke-linejoin="round" stroke-miterlimit="10" fill="none" fill-rule="evenodd"/></g><g><path d="M1420 1777C1420 1783.07 1415.07 1788 1409 1788 1402.92 1788 1398 1783.07 1398 1777 1398 1770.92 1402.92 1766 1409 1766 1415.07 1766 1420 1770.92 1420 1777Z" stroke="#ED7D31" stroke-width="3.4375" stroke-linejoin="round" stroke-miterlimit="10" fill="#ED7D31"/></g><g><g><text fill="#595959" font-family="DengXian,DengXian_MSFontService,sans-serif" font-weight="400" font-size="41" transform="matrix(1 0 0 1 1462.9 1787)">非能力因素失分</text></g></g><g><path d="M1812 1778 1900 1778" stroke="#A5A5A5" stroke-width="10.3125" stroke-linecap="round" stroke-linejoin="round" stroke-miterlimit="10" fill="none" fill-rule="evenodd"/></g><g><path d="M1866 1777C1866 1783.07 1861.08 1788 1855 1788 1848.93 1788 1844 1783.07 1844 1777 1844 1770.92 1848.93 1766 1855 1766 1861.08 1766 1866 1770.92 1866 1777Z" stroke="#A5A5A5" stroke-width="3.4375" stroke-linejoin="round" stroke-miterlimit="10" fill="#A5A5A5"/></g><g><g><text fill="#595959" font-family="DengXian,DengXian_MSFontService,sans-serif" font-weight="400" font-size="41" transform="matrix(1 0 0 1 1909.09 1787)">能力因素失分</text></g></g><rect x="309.5" y="336.5" width="2641" height="1485" stroke="#D9D9D9" stroke-width="3.4375" stroke-linejoin="round" stroke-miterlimit="10" fill="none"/></g></svg>
